!!!ONB: MCCC : ICA0059_01 : Extracted Monophonic Melody
!!!COM: Alkan, Charles-Valentin
!!!OPR: Recueil d'Impromptus
!!!OMV: 1
!!!SCT: Op.32
!!!ODT: 1849///
**kern
*staff1
*IPiano
=1
*clefF4
*k[]
*C:
*M5/4
8E
4AA
8C
8.BB
16AA
4BB
4EE
=2
8E
4AA
8C
8.BB
16AA
4BB
4GG
=3
8G
4C
8E
8.D
16C
4D
4E
=4
8C
4AA
8C
8.BB
16AA
4BB
4AA
=5
8ee
4a
8cc
8.b
16a
4b
4e
=6
8ee
4a
8cc
8.b
16a
4b
4g
=7
8gg
4cc
8ee
8.dd
16cc
4dd
4ee
=8
8cc
4a
8cc
8.b
16a
4b
4a
=9
8ee
4a
8cc
8.b
16a
4b
4e
=10
8ee
4a
8cc
8.b
16a
4b
4g
=11
8gg
4cc
8ee
8.dd
16cc
4dd
4ee
=12
8cc
4a
8cc
8.b
16a
4b
4a
=13
8b
4ee
8ff#
8.gg
16aa
4bb
4ff#
=14
8a
4dd
8ee
8.ff#
16gg#
4aa
4ee
=15
8g
4cc
8dd
8.ee
16ff#
4gg
4ee
=16
8gg
4ee
8dd#
8.cc#
16dd#
[2ee
8ee][
=17
8ee]
4a
8cc
8.b
16a
4b
4e
=18
8ee
4a
8cc
8.b
16a
4b
4g
=19
8gg
4cc
8ee
8.dd
16cc
4dd
4ee[
=20
8ee]
4a
8cc
8.b
16a
4b
4a
=21
8b
4ee
8ff#
8.gg
16aa
4bb
4ff#
=22
8a
4dd
8ee
8.ff#
16gg#
4aa
4ee
=23
8g
4cc
8dd
8.ee
16ff#
4gg
4ee
=24
8gg
4ee
8dd#
8.cc#
16dd#
[2ee
8ee][
=25
8ee]
4a
8cc
8.b
16a
4b
4e
=26
8ee
4a
8cc
8.b
16a
4b
4g
=27
8gg
4cc
8ee
8.dd
16cc
4dd
4ee[
=28
8ee]
4a
8cc
8.b
16a
4b
4a
=29
*k[f#c#g#]
*A:
8cc#
4cc#
8dd
8cc#
8b
16a
16g#
16f#
16e
4ee
=30
8cc#
4cc#
8dd
8cc#
8b
16a
16g#
16f#
16e
4ff#
=31
8cc#
4cc#
8dd
8cc#
8b
16a
16g#
16f#
16e
4ee
=32
8cc#
4cc#
8dd
8cc#
8b
16a
16g#
16f#
16e
4a
=33
8cc#
4cc#
8dd
8cc#
8b
16a
16g#
16f#
16e
4ee
=34
8cc#
4cc#
8dd
8cc#
8b
16a
16g#
16f#
16e
4ff#
=35
8cc#
4cc#
8dd
8cc#
8b
16a
16g#
16f#
16e
4ee
=36
8cc#
4cc#
8dd
8cc#
8b
16a
16g#
16f#
16e
4a
=37
8cc#
4cc#
8dd#
8ee
8ff#
16gg#
16aa
16gg#
16ff#
4gg#
=38
8cc#
4cc#
8dd#
8ee
8ff#
16dd#
16ee
16dd#
16cc#
4dd#
=39
8cc#
4cc#
8dd#
8ee
8ff#
16gg#
16aa
16gg#
16ff#
4gg#
=40
8cc#
4cc#
8dd#
8ee
8ff#
16dd#
16ee
16dd#
16cc#
8dd#
8dd##
=41
8ee#
4ee#
8ff#
8ee#
8dd#
16cc#
16b#
16a#
16g#
4gg#
=42
8ee#
4ee#
8ff#
8ee#
8dd#
16cc#
16b#
16a#
16g#
4aa#
=43
8ee#
4ee#
8ff#
8ee#
8dd#
16cc#
16b#
16a#
16g#
4gg#
=44
8cc#
4cc#
8dd
8cc#
8b
16a
16g#
16f#
16e
4aa
=45
8cc#
4cc#
8dd#
8ee
8ff#
16gg#
16aa
16gg#
16ff#
4gg#
=46
8cc#
4cc#
8dd#
8ee
8ff#
16dd#
16ee
16dd#
16cc#
4dd#
=47
8cc#
4cc#
8dd#
8ee
8ff#
16gg#
16aa
16gg#
16ff#
4gg#
=48
8cc#
4cc#
8dd#
8ee
8ff#
16dd#
16ee
16dd#
16cc#
8dd#
8dd##
=49
8ee#
4ee#
8ff#
8ee#
8dd#
16cc#
16b#
16a#
16g#
4gg#
=50
8ee#
4ee#
8ff#
8ee#
8dd#
16cc#
16b#
16a#
16g#
4aa#
=51
8ee#
4ee#
8ff#
8ee#
8dd#
16cc#
16b#
16a#
16g#
4gg#
=52
8cc#
4cc#
8dd
8cc#
8b
16a
16g#
16f#
16e
4aa
=53
*k[]
*C:
8e
4a
8cc
8.b
16a
4b
4e
=54
8ee
4a
8cc
8.b
16a
4b
4g
=55
8gg
4cc
8ee
8.dd
16cc
4dd
4ee
=56
8cc
4a
8cc
8.b
16a
4b
4a
=57
8e
4a
8cc
8.b
16a
4b
4e
=58
8ee
4a
8cc
8.b
16a
4b
4g
=59
8gg
4cc
8ee
8.dd
16cc
4dd
4ee
=60
8cc
4a
8cc
8.b
16a
4b
4a
=61
8b
4ee
8ff#
8.gg
16aa
4bb
4ff#
=62
8a
4dd
8ee
8.ff#
16gg#
4aa
4ee
=63
8g
4cc
8dd
8.ee
16ff#
4gg
4ee
=64
8gg
4ee
8dd#
8.cc#
16dd#
[2ee
8ee][
=65
8ee]
4a
8cc
8.b
16a
4b
4e
=66
8ee
4a
8cc
8.b
16a
4b
4g
=67
8gg
4cc
8ee
8.dd
16cc
4dd
4ee[
=68
8ee]
4a
8cc
8.b
16a
4b
4a
=69
8b
4ee
8ff#
8.gg
16aa
4bb
4ff#
=70
8a
4dd
8ee
8.ff#
16gg#
4aa
4ee
=71
8g
4cc
8dd
8.ee
16ff#
4gg
4ee
=72
8gg
4ee
8dd#
8.cc#
16dd#
[2ee
8ee][
=73
8ee]
4a
8cc
8.b
16a
4b
4e
=74
8ee
4a
8cc
8.b
16a
4b
4g
=75
8gg
4cc
8ee
8.dd
16cc
4dd
4ee[
=76
8ee]
4a
8cc
8.b
16a
4b
4a
=77
8gg
4cc
8ee
8.dd
16cc
4dd
4ee[
=78
8ee]
4a
8cc
8.b
16a
4b
4a
=79
8ee
4a
8cc
8.b
16a
4b
4a
=80
8aa
4a
8cc
8.b
16a
4b
4e
==
*-
